SF_Symbols/mic.and.signal.meter.svg

<?xml version="1.0" encoding="UTF-8"?>
<svg xmlns="http://www.w3.org/2000/svg" xmlns:xlink="http://www.w3.org/1999/xlink" width="24" height="24" viewBox="0 0 24 24" version="1.1">
<g id="surface1">
<path style=" stroke:none;fill-rule:nonzero;fill:rgb(100%,100%,100%);fill-opacity:1;" d="M 2.875 6.105469 C 3.394531 6.105469 3.839844 5.921875 4.207031 5.550781 C 4.578125 5.183594 4.761719 4.734375 4.761719 4.207031 C 4.761719 3.6875 4.578125 3.242188 4.207031 2.875 C 3.839844 2.507812 3.394531 2.324219 2.875 2.324219 C 2.339844 2.324219 1.886719 2.507812 1.511719 2.875 C 1.140625 3.242188 0.957031 3.6875 0.957031 4.207031 C 0.957031 4.742188 1.140625 5.195312 1.511719 5.5625 C 1.878906 5.921875 2.332031 6.105469 2.875 6.105469 Z M 2.875 11.542969 C 3.394531 11.542969 3.839844 11.359375 4.207031 10.988281 C 4.578125 10.621094 4.761719 10.171875 4.761719 9.644531 C 4.761719 9.109375 4.578125 8.660156 4.207031 8.292969 C 3.839844 7.921875 3.394531 7.738281 2.875 7.738281 C 2.332031 7.738281 1.878906 7.921875 1.511719 8.292969 C 1.140625 8.660156 0.957031 9.109375 0.957031 9.644531 C 0.957031 10.171875 1.140625 10.621094 1.511719 10.988281 C 1.878906 11.359375 2.332031 11.542969 2.875 11.542969 Z M 2.875 16.988281 C 3.222656 16.988281 3.539062 16.902344 3.824219 16.730469 C 4.109375 16.554688 4.332031 16.328125 4.5 16.042969 C 4.671875 15.75 4.761719 15.425781 4.761719 15.074219 C 4.761719 14.550781 4.578125 14.109375 4.207031 13.738281 C 3.839844 13.371094 3.394531 13.1875 2.875 13.1875 C 2.519531 13.1875 2.199219 13.273438 1.90625 13.449219 C 1.613281 13.613281 1.382812 13.839844 1.207031 14.125 C 1.042969 14.410156 0.957031 14.726562 0.957031 15.074219 C 0.957031 15.613281 1.140625 16.070312 1.511719 16.4375 C 1.878906 16.804688 2.332031 16.988281 2.875 16.988281 Z M 2.875 22.40625 C 3.394531 22.40625 3.839844 22.222656 4.207031 21.855469 C 4.578125 21.484375 4.761719 21.042969 4.761719 20.519531 C 4.761719 19.992188 4.578125 19.546875 4.207031 19.175781 C 3.839844 18.808594 3.394531 18.625 2.875 18.625 C 2.332031 18.625 1.878906 18.808594 1.511719 19.175781 C 1.140625 19.546875 0.957031 19.992188 0.957031 20.519531 C 0.957031 21.042969 1.140625 21.484375 1.511719 21.855469 C 1.886719 22.222656 2.339844 22.40625 2.875 22.40625 Z M 8.125 11.605469 C 8.125 12.964844 8.402344 14.171875 8.957031 15.230469 C 9.519531 16.285156 10.300781 17.132812 11.300781 17.769531 C 12.300781 18.402344 13.464844 18.773438 14.792969 18.886719 L 14.792969 21.3125 L 10.925781 21.3125 C 10.703125 21.3125 10.515625 21.390625 10.363281 21.542969 C 10.210938 21.695312 10.136719 21.882812 10.136719 22.105469 C 10.136719 22.320312 10.210938 22.503906 10.363281 22.65625 C 10.515625 22.808594 10.703125 22.886719 10.925781 22.886719 L 20.230469 22.886719 C 20.453125 22.886719 20.640625 22.808594 20.792969 22.65625 C 20.945312 22.503906 21.019531 22.320312 21.019531 22.105469 C 21.019531 21.882812 20.945312 21.695312 20.792969 21.542969 C 20.640625 21.390625 20.453125 21.3125 20.230469 21.3125 L 16.363281 21.3125 L 16.363281 18.886719 C 17.691406 18.773438 18.855469 18.402344 19.855469 17.769531 C 20.855469 17.132812 21.632812 16.285156 22.1875 15.230469 C 22.75 14.171875 23.03125 12.964844 23.03125 11.605469 L 23.03125 9.488281 C 23.03125 9.273438 22.953125 9.089844 22.800781 8.9375 C 22.648438 8.785156 22.464844 8.707031 22.25 8.707031 C 22.027344 8.707031 21.839844 8.785156 21.6875 8.9375 C 21.535156 9.089844 21.457031 9.273438 21.457031 9.488281 L 21.457031 11.542969 C 21.457031 12.722656 21.214844 13.757812 20.730469 14.644531 C 20.242188 15.535156 19.558594 16.226562 18.675781 16.71875 C 17.800781 17.203125 16.765625 17.449219 15.574219 17.449219 C 14.386719 17.449219 13.351562 17.203125 12.46875 16.71875 C 11.59375 16.226562 10.914062 15.535156 10.425781 14.644531 C 9.941406 13.757812 9.699219 12.722656 9.699219 11.542969 L 9.699219 9.488281 C 9.699219 9.273438 9.621094 9.089844 9.46875 8.9375 C 9.316406 8.785156 9.128906 8.707031 8.90625 8.707031 C 8.691406 8.707031 8.507812 8.785156 8.355469 8.9375 C 8.203125 9.089844 8.125 9.273438 8.125 9.488281 Z M 11.792969 11.230469 C 11.792969 12.027344 11.953125 12.734375 12.269531 13.355469 C 12.589844 13.964844 13.035156 14.445312 13.605469 14.792969 C 14.171875 15.140625 14.828125 15.3125 15.574219 15.3125 C 16.324219 15.3125 16.984375 15.140625 17.550781 14.792969 C 18.121094 14.445312 18.566406 13.964844 18.886719 13.355469 C 19.203125 12.734375 19.363281 12.027344 19.363281 11.230469 L 19.363281 4.675781 C 19.363281 3.878906 19.203125 3.171875 18.886719 2.5625 C 18.566406 1.945312 18.121094 1.460938 17.550781 1.113281 C 16.984375 0.765625 16.324219 0.59375 15.574219 0.59375 C 14.828125 0.59375 14.171875 0.765625 13.605469 1.113281 C 13.035156 1.460938 12.589844 1.945312 12.269531 2.5625 C 11.953125 3.171875 11.792969 3.878906 11.792969 4.675781 Z M 13.363281 11.230469 L 13.363281 4.675781 C 13.363281 3.90625 13.566406 3.292969 13.96875 2.832031 C 14.371094 2.375 14.90625 2.144531 15.574219 2.144531 C 16.238281 2.144531 16.773438 2.375 17.175781 2.832031 C 17.585938 3.292969 17.792969 3.90625 17.792969 4.675781 L 17.792969 11.230469 C 17.792969 12 17.585938 12.613281 17.175781 13.074219 C 16.773438 13.53125 16.238281 13.761719 15.574219 13.761719 C 14.90625 13.761719 14.371094 13.53125 13.96875 13.074219 C 13.566406 12.613281 13.363281 12 13.363281 11.230469 Z M 13.363281 11.230469 "/>
</g>
</svg>

<svg xmlns="http://www.w3.org/2000/svg" width="24" height="24"><path style="stroke:none;fill-rule:nonzero;fill:#fff;fill-opacity:1" d="M2.875 6.105c.52 0 .965-.183 1.332-.554.371-.367.555-.817.555-1.344 0-.52-.184-.965-.555-1.332a1.817 1.817 0 0 0-1.332-.55c-.535 0-.988.183-1.363.55a1.805 1.805 0 0 0-.555 1.332c0 .535.184.988.555 1.356.367.359.82.542 1.363.542Zm0 5.438c.52 0 .965-.184 1.332-.555.371-.367.555-.816.555-1.343 0-.536-.184-.985-.555-1.352a1.805 1.805 0 0 0-1.332-.555c-.543 0-.996.184-1.363.555a1.834 1.834 0 0 0-.555 1.352c0 .527.184.976.555 1.343.367.371.82.555 1.363.555Zm0 5.445c.348 0 .664-.086.95-.258.284-.175.507-.402.675-.687.172-.293.262-.617.262-.969 0-.523-.184-.965-.555-1.336a1.817 1.817 0 0 0-1.332-.55 1.842 1.842 0 0 0-.969.261c-.293.164-.523.39-.699.676-.164.285-.25.602-.25.95 0 .538.184.995.555 1.363.367.367.82.55 1.363.55Zm0 5.418c.52 0 .965-.183 1.332-.55.371-.372.555-.813.555-1.336 0-.528-.184-.973-.555-1.344a1.817 1.817 0 0 0-1.332-.551c-.543 0-.996.184-1.363.55-.364.352-.563.84-.555 1.345 0 .523.184.964.555 1.335.375.368.828.551 1.363.551Zm5.25-10.8c0 1.359.277 2.566.832 3.624a6.718 6.718 0 0 0 2.344 2.54c1 .632 2.164 1.003 3.492 1.117v2.425h-3.867a.764.764 0 0 0-.563.231.775.775 0 0 0-.226.562c0 .215.074.399.226.551.153.153.34.23.563.23h9.304c.223 0 .41-.077.563-.23a.749.749 0 0 0 .227-.55.76.76 0 0 0-.227-.563.764.764 0 0 0-.563-.23h-3.867v-2.426c1.328-.114 2.492-.485 3.492-1.117a6.6 6.6 0 0 0 2.332-2.54c.563-1.058.844-2.265.844-3.625V9.488a.753.753 0 0 0-.23-.55.753.753 0 0 0-.551-.231.764.764 0 0 0-.563.23.753.753 0 0 0-.23.551v2.055c0 1.18-.242 2.215-.727 3.102a5.173 5.173 0 0 1-2.054 2.074c-.875.484-1.91.73-3.102.73-1.187 0-2.222-.246-3.105-.73a5.193 5.193 0 0 1-2.043-2.074c-.485-.887-.727-1.922-.727-3.102V9.488a.753.753 0 0 0-.23-.55.764.764 0 0 0-.563-.231.753.753 0 0 0-.55.23.753.753 0 0 0-.231.551Zm3.668-.376c0 .797.16 1.504.477 2.125.32.61.765 1.09 1.335 1.438.567.348 1.223.52 1.97.52.75 0 1.41-.172 1.976-.52a3.613 3.613 0 0 0 1.336-1.438c.316-.62.476-1.328.476-2.125V4.676c0-.797-.16-1.504-.476-2.114a3.592 3.592 0 0 0-1.336-1.449c-.567-.347-1.227-.52-1.977-.52-.746 0-1.402.173-1.969.52a3.592 3.592 0 0 0-1.335 1.45c-.317.609-.477 1.316-.477 2.113Zm1.57 0V4.676c0-.77.203-1.383.606-1.844.402-.457.937-.687 1.605-.687.664 0 1.2.23 1.602.687.41.461.617 1.074.617 1.844v6.554c0 .77-.207 1.383-.617 1.844-.403.457-.938.688-1.602.688-.668 0-1.203-.23-1.605-.688-.403-.46-.606-1.074-.606-1.844Zm0 0"/></svg>
